!!!COM: Anon.
!!!OTL: Horete-Kayouni
!!!OTC: Japanese Popular Music: A Collection of The Popular Music of Japan Rendered in to the Staff notation.
!!!CNT: Nippon, Japanese
!!!TXO: Nippon, Japan
!!!OCY: Nippon, Japan
!!!ODT: <1892///
!!!PSR: S. Miki & Co.
!!!PSP: Osaka, Nippon
!!!PDT: 1892///
!!!PPE: Y Nagai & K. Kobatake
!!!PED: Revised Second Edition
!!!PPG: page 56-57
!! Allegro moderato
**kern	**silbe
*ICstr	*Lnippon
*ICvox	*
*Ikoto	*
*Ivox	*
*clefG2	*
*k[]	*
*M4/4	*
=1-	=1-
4b	.
4e	.
4.B 4.b	.
8b	.
=2	=2
4e	.
4b	.
8b	.
8cc	.
8a	.
8f	.
=3	=3
8a	.
8b	.
4.c 4.cc	.
8cc	.
4b	.
=4	=4
8r	.
8cc	.
8b	.
8a	.
4b	.
8r	.
8a	.
=5	=5
4b	.
8b	.
8e	.
4dd	.
4ee	.
=6	=6
4.ff	.
8aa	.
4ff	.
8ee	.
8ee	.
=7	=7
8r	.
8cc	.
8b	.
8r	.
8.ee	.
16cc	.
8cc	.
8ee	.
=8	=8
8cc	.
8b	.
4a	.
4a	.
4r	.
=9	=9
4a	.
4.e	.
8ff	.
8ee	.
8dd	.
=10	=10
8b	.
8dd	.
8a	.
4r	.
8f	.
8f	.
8a	.
8b	.
=11	=11
8a	.
8f	.
8e	.
8r	.
8ee	.
8r	.
8cc	.
8r	.
=12	=12
8b	.
8b	.
8cc	.
8a	.
8b	.
8r	.
8e	.
8r	.
=13	=13
4B	.
8.r	.
16a	.
4B 4b	.
4d	.
=14	=14
4..e	.
16e	.
8e	.
8r	.
8f	.
8f	.
=15	=15
8e	.
8r	.
4c	.
4r	.
8c	.
8c	.
=16	=16
8c	.
8r	.
8e	.
8e	.
8c	.
8e	.
8c	.
8B	.
=17	=17
8a	.
8e	.
8a	.
8b	.
8cc	.
8r	.
8e	.
8r	.
=18	=18
8c	.
8r	.
8b	.
8cc	.
8a	.
8r	.
8f	.
8r	.
=19	=19
4e	.
8a	.
8e	.
8a	.
8r	.
8b	.
8r	.
=20	=20
8e	.
8r	.
2c 2cc	.
[4e [4ee	.
=21	=21
4e] 4ee]	.
2c 2cc	.
8ee	.
8ee	.
=22	=22
8cc	.
8ee	.
8cc	.
8b	.
8a	.
8cc	.
8b	.
8a	.
=23	=23
4f	.
4.e	.
8a	.
4f	.
=24	=24
8r	.
8a	.
4b	.
8r	.
8cc	.
8a	.
8b	.
=25	=25
4e	.
8dd	.
8ee	.
4ff	.
4r	.
=26	=26
4ee	.
4r	.
8cc	.
8cc	.
8ee	.
8cc	.
=27	=27
8b	.
8r	.
8g	.
8r	.
(4..a	.
16f)	.
=28	=28
(4e	.
4d	.
4e)	.
4r	.
=29	=29
8e	.
8r	.
8ee	.
8r	.
8cc	.
8r	.
8b	.
8r	.
=30	=30
8.a	.
16f	.
8f	.
8a	.
8b	.
16cc	.
16b	.
8e	.
8b	.
=31	=31
4b	.
8b	.
8e	.
8dd	.
8ee	.
8ff	.
8ff	.
=32	=32
16ee	.
16ee	.
16ee	.
16cc	.
8b	.
8cc	.
16B	.
16B	.
16B	.
16B	.
8aa	.
8ff	.
=33	=33
4e 4ee	.
4r	.
8aa	.
8r	.
8ff	.
8r	.
=34	=34
4ee	.
8cc	.
8ee	.
8r	.
8ff	.
8ee	.
8cc	.
=35	=35
8.b	.
16a	.
8b	.
8cc	.
8ee	.
8r	.
8cc	.
8b	.
=36	=36
8a	.
8b	.
8cc	.
8r	.
8cc	.
8b	.
8a	.
8f	.
=37	=37
4.e	.
8cc	.
8b	.
8r	.
8e	.
8r	.
=38	=38
4B 4b	.
8ee	.
8cc	.
8b	.
8r	.
8e	.
8r	.
=39	=39
2B 2b	.
2r	.
==	==
*-	*-
!!!ENC: David Huron
!!!RDT: 2000/1/30
!!!EEV: Release 1.0
!!!ELF: 16/28
!!!YER: 2000/2/1
!!!YEM: Copyright David Huron, 2000
!!!YEN: United States of America
